X: 16839
T: Harvest Home, The
R: hornpipe
M: 4/4
K: Dmajor
|:AF|DAFA DAFA|defe dcBA|eAfA gAfA|edcB AGFE|
DAFA DAFA|defe dcBA|eAfA gece|d2 f2 d2:|
|:cd|eA (3AAA fA (3AAA|gAfA eA (3AAA|eAfA gAfA|(3efe (3dcB (3ABA (3GFE|
DAFA DAFA|defe dcBA|eAfA gece|d2 f2 d2:|

